X:1
T:Killer Joe
C:Benny Golson
M:4/4
L:1/4
K:C
P:A
"C7"z2 FE/G/- | "Bb7"G4- | "C7"G2EC/_B,/- | "Bb7"B,4 |
"C7"z2 FE/G/- | "Bb7"G3E/G/- | "C7"G4- | "Bb7"G4 ||
P:A
"C7"z2 FE/G/- | "Bb7"G4- | "C7"G2EC/_B,/- | "Bb7"B,4 |
"C7"z2 FE/G/- | "Bb7"G3E/G/- | "C7"G4- | "Bb7"G4 ||
P:B
"Em7b5"G4- | "A7"G2A2 | "Ebm7"_B4- | "Ab7"B2c2 |
"A7"^c4- | "Ebm7"c2"Ab7"_e2 | "Em7b5"e4- | "A7"e4 ||
P:A
"C7"z2 FE/G/- | "Bb7"G4- | "C7"G2EC/_B,/- | "Bb7"B,4 |
"C7"z2 FE/G/- | "Bb7"G3E/G/- | "C7"G4- | "Bb7"G4 |]
